X:1
T:Title
%%score { ( 1 3 4 ) | ( 2 5 ) }
L:1/8
M:4/4
K:Bb
V:1 treble nm="Grand Piano"
V:3 treble 
V:4 treble 
V:2 bass 
V:5 bass 
V:1
 z4 z2[Q:1/4=108] [DF]>[DF] | [DF]2 [DB]>[Ec] [Fd]2 [Fd]>[Fc] | [GB]2 [EG]2 [GB]2 [GB]>[EG] | %3
 [DF]2 [DB]2 [DB]2 [EA][FB] |[M:9/8] c2 d- d c2- cF>F |[M:4/4] [DF]2 [DB]>[Ec] [Fd]2 [Fd]>[Fc] | %6
 [GB]2 [EG]2 [GB]2 [FA]>G | F2 B2 BA B>c |[M:7/8] d2 c2 [DB]3 |[M:1/4][K:bass] B,,>C, | %10
[M:4/4] z4[K:treble] F2[K:bass][K:treble] z2 | [B,DF]>[DF] [DF]>[DF] [B,F]2 [DF]2 | %12
 [CEF]>[EF] [CEF]>[CEF] [CEF]2 [CEF]2 | [B,DF]>F F>F F2[K:bass] D,>B,, | %14
 z2 E>E[K:treble] E2 [B,EG]2 | [B,DF]>[DF] [DF]>[DF] [B,F]2 [DF]2 | %16
 [CEF]>[EF] [CEF]>[CEF] [CEF]2 [CEF]2 |[M:3/4] [B,DF]>D E>E D2 |] %18
V:2
 z4 z2 [B,,B,]>[B,,B,] | [B,,B,]2 [B,,B,]>[B,,B,] [B,,B,]2 [B,,B,]>[D,B,] | %2
 [E,B,]2 [E,B,]2 [E,B,]2 [E,B,]>[E,B,] | [B,,B,]2 [B,,F,]2 [B,,F,]2 [C,F,][D,B,] | %4
[M:9/8] [F,A,F]2 [F,B,F]- [F,B,F] [F,A,F]2- [F,A,F][F,A,E]>[F,A,E] | %5
[M:4/4] [B,,B,]2 [B,,B,]>[B,,B,] [B,,B,]2 [B,,B,]>[D,B,] | [E,B,]2 [E,B,]2 [E,B,]2 [E,B,]>[E,B,E] | %7
 [F,B,D]2 [F,DF]2 [G,C=E]2 [G,CE]>[G,CE] |[M:7/8] [F,B,F]2 [F,A,E]2 [B,,B,]3 |[M:1/4] z2 | %10
[M:4/4] z2 [B,D]>[B,D] [B,D]2 B,,>G, | z z/ B,/ B,>B, D,2 B,2 | A,2 z2 z4 | %13
 z z/ [B,D]/ [B,D]>[B,D] [B,D]2 z2 | z4 B,2 z2 | z z/ B,/ B,>B, D,2 B,2 | A,2 z2 z4 | %17
[M:3/4] z z/ [F,B,]/ [G,B,]>[G,B,] [F,B,]2 |] %18
V:3
 x8 | x8 | x8 | x8 |[M:9/8] x9 |[M:4/4] x8 | x8 | x8 |[M:7/8] x7 |[M:1/4][K:bass] x2 | %10
[M:4/4] z2[K:treble] F>F z z/[K:bass] C,/[K:treble] [B,DF]2 | x8 | x8 | x6[K:bass] x2 | %14
 G,6[K:treble] z2 | x8 | x8 |[M:3/4] x6 |] %18
V:4
 x8 | x8 | x8 | x8 |[M:9/8] x9 |[M:4/4] x8 | x8 | x8 |[M:7/8] x7 |[M:1/4][K:bass] x2 | %10
[M:4/4] D,6[K:treble][K:bass][K:treble] z2 | x8 | x8 | x6[K:bass] x2 | x4[K:treble] x4 | x8 | x8 | %17
[M:3/4] x6 |] %18
V:5
 x8 | x8 | x8 | x8 |[M:9/8] x9 |[M:4/4] x8 | x8 | x8 |[M:7/8] x7 |[M:1/4] x2 |[M:4/4] x8 | D,4 z4 | %12
 z z/ C/ C,>D, E,>F, A,>G, | F,6 z2 | z2 B,>B, z z/ F,/ E,>B, | F,4 z4 | %16
 z z/ C/ C,>D, E,>G, F,>A,, |[M:3/4] B,,6 |] %18

